X:1
T:Title
%%score { 1 | ( 2 3 ) }
L:1/8
Q:1/4=100
M:4/4
K:Ab
V:1 treble nm="Grand Piano"
V:2 bass 
V:3 bass 
V:1
 [CE][CE][CE][CE] [CE]2 [CE]2 | [Ec]4 [CA]2 [EA]2 | [EB]2 [EB]2 [EA]2 B2 | c6 z2 | %4
w: Charlie~D.~Tillman * * * * *||||
 [CE][CE][CE][CE] [CE]2 [CE]2 | [Ec]4 [CA]2 [CA]2 | B2 B2 A2 G2 |[M:3/4] [CA]6 |[M:1/4] [EG][FA] | %9
w: |||||
[M:4/4] [GB]2 [GB]2 [Ge]2 [Bd]2 | c4 A2 GA | [GB]2 [GB]2 [Ge]2 [Bd]2 | [Ac]6 z2 | %13
w: ||||
 [CE][CE][CE][CE] [CE]2 [CE]2 | [Ec]4 [CA]2 [CA][Ec] | B2 B2 A2 G2 | [CA]6 z2 |] %17
w: ||||
V:2
 [A,,A,][A,,A,][A,,A,][A,,A,] [A,,A,]2 [A,,A,]2 | [A,,A,]4 [A,,E,]2 [C,A,]2 | %2
 [E,G,]2 [E,G,]2 [C,A,]2 [E,G,E]2 | [A,E]6 z2 | [A,,A,][A,,A,][A,,A,][A,,A,] [A,,A,]2 [A,,A,]2 | %5
 [A,,A,]4 [A,,E,]2 [A,,E,]2 | [D,F,D]2 [D,F,D]2 [E,C]2 [E,B,]2 |[M:3/4] [A,,E,]6 |[M:1/4] [E,B,]2 | %9
[M:4/4] [E,E]2 [E,E]2 [E,B,]2 [E,E]2 | [A,EA]4 [A,CE]2 EF | [E,E]2 [E,E]2 [E,B,]2 [E,E]2 | %12
 [A,E]6 z2 | [A,,A,][A,,A,][A,,A,][A,,A,] [A,,A,]2 [A,,A,]2 | [A,,A,]4 [A,,E,]2 [A,,E,][A,,A,] | %15
 [D,F,D]2 [D,F,D]2 [E,C]2 [E,B,]2 | [A,,E,]6 z2 |] %17
V:3
 x8 | x8 | x8 | x8 | x8 | x8 | x8 |[M:3/4] x6 |[M:1/4] x2 |[M:4/4] x8 | z4 z2 [E,B,]2 | x8 | x8 | %13
 x8 | x8 | x8 | x8 |] %17

